content/blogs/regnskap/hva-er-kasseoppgjor/kasseoppgjor-steg-for-steg.svg

<svg xmlns="http://www.w3.org/2000/svg" width="900" height="600"><defs><linearGradient id="a" x1="0%" x2="100%" y1="0%" y2="100%"><stop offset="0%" style="stop-color:#f8f9fa;stop-opacity:1"/><stop offset="100%" style="stop-color:#e9ecef;stop-opacity:1"/></linearGradient><linearGradient id="b" x1="0%" x2="100%" y1="0%" y2="100%"><stop offset="0%" style="stop-color:#3498db;stop-opacity:1"/><stop offset="100%" style="stop-color:#2980b9;stop-opacity:1"/></linearGradient><linearGradient id="c" x1="0%" x2="100%" y1="0%" y2="100%"><stop offset="0%" style="stop-color:#27ae60;stop-opacity:1"/><stop offset="100%" style="stop-color:#229954;stop-opacity:1"/></linearGradient><linearGradient id="d" x1="0%" x2="100%" y1="0%" y2="100%"><stop offset="0%" style="stop-color:#f39c12;stop-opacity:1"/><stop offset="100%" style="stop-color:#e67e22;stop-opacity:1"/></linearGradient></defs><path fill="url(#a)" stroke="#dee2e6" stroke-width="2" d="M0 0h900v600H0z"/><text x="450" y="30" fill="#2c3e50" font-family="Arial, sans-serif" font-size="24" font-weight="bold" text-anchor="middle">
    Detaljert Kasseoppgjør Prosess - Steg for Steg
  </text><rect width="250" height="150" x="50" y="70" fill="url(#b)" stroke="#2980b9" stroke-width="2" rx="10"/><text x="175" y="95" fill="#fff" font-family="Arial, sans-serif" font-size="16" font-weight="bold" text-anchor="middle">
    STEG 1: FORBEREDELSE
  </text><text x="70" y="120" fill="#fff" font-family="Arial, sans-serif" font-size="12">✓ Avslutt alle aktive transaksjoner</text><text x="70" y="140" fill="#fff" font-family="Arial, sans-serif" font-size="12">✓ Print kasserapporter</text><text x="70" y="160" fill="#fff" font-family="Arial, sans-serif" font-size="12">✓ Samle alle betalingsmidler</text><text x="70" y="180" fill="#fff" font-family="Arial, sans-serif" font-size="12">✓ Forbered tellingsskjema</text><text x="70" y="200" fill="#fff" font-family="Arial, sans-serif" font-size="12">✓ Sikre arbeidsområde</text><path fill="none" stroke="#e74c3c" stroke-width="3" d="M310 145h30l-10-10m10 10-10 10"/><rect width="250" height="150" x="350" y="70" fill="url(#c)" stroke="#229954" stroke-width="2" rx="10"/><text x="475" y="95" fill="#fff" font-family="Arial, sans-serif" font-size="16" font-weight="bold" text-anchor="middle">
    STEG 2: FYSISK TELLING
  </text><rect width="60" height="30" x="370" y="110" fill="#27ae60" stroke="#229954" rx="3"/><text x="400" y="130" fill="#fff" font-family="Arial, sans-serif" font-size="10" font-weight="bold" text-anchor="middle">1000kr</text><rect width="60" height="30" x="440" y="110" fill="#e74c3c" stroke="#c0392b" rx="3"/><text x="470" y="130" fill="#fff" font-family="Arial, sans-serif" font-size="10" font-weight="bold" text-anchor="middle">500kr</text><rect width="60" height="30" x="510" y="110" fill="#3498db" stroke="#2980b9" rx="3"/><text x="540" y="130" fill="#fff" font-family="Arial, sans-serif" font-size="10" font-weight="bold" text-anchor="middle">200kr</text><text x="475" y="160" fill="#fff" font-family="Arial, sans-serif" font-size="12">Tell systematisk:</text><text x="370" y="180" fill="#fff" font-family="Arial, sans-serif" font-size="11">• Store sedler først</text><text x="370" y="195" fill="#fff" font-family="Arial, sans-serif" font-size="11">• Deretter små sedler</text><text x="370" y="210" fill="#fff" font-family="Arial, sans-serif" font-size="11">• Til slutt mynter</text><path fill="none" stroke="#e74c3c" stroke-width="3" d="M610 145h30l-10-10m10 10-10 10"/><rect width="200" height="150" x="650" y="70" fill="url(#d)" stroke="#e67e22" stroke-width="2" rx="10"/><text x="750" y="95" fill="#fff" font-family="Arial, sans-serif" font-size="16" font-weight="bold" text-anchor="middle">
    STEG 3: REGISTRERING
  </text><path fill="#ecf0f1" stroke="#bdc3c7" d="M670 110h160v100H670z"/><text x="750" y="125" fill="#2c3e50" font-family="Arial, sans-serif" font-size="11" font-weight="bold" text-anchor="middle">
    TELLINGSSKJEMA
  </text><path stroke="#7f8c8d" d="M675 135h150M675 150h150M675 165h150M675 180h150M675 195h150"/><text x="680" y="145" fill="#2c3e50" font-family="Arial, sans-serif" font-size="9">1000kr x 15</text><text x="680" y="160" fill="#2c3e50" font-family="Arial, sans-serif" font-size="9">500kr x 8</text><text x="680" y="175" fill="#2c3e50" font-family="Arial, sans-serif" font-size="9">200kr x 12</text><text x="680" y="190" fill="#2c3e50" font-family="Arial, sans-serif" font-size="9">100kr x 25</text><path fill="none" stroke="#e74c3c" stroke-width="3" d="M175 230v30l-10-10m10 10 10-10"/><rect width="250" height="150" x="50" y="270" fill="#9b59b6" stroke="#8e44ad" stroke-width="2" rx="10"/><text x="175" y="295" fill="#fff" font-family="Arial, sans-serif" font-size="16" font-weight="bold" text-anchor="middle">
    STEG 4: AVSTEMMING
  </text><text x="175" y="320" fill="#fff" font-family="Arial, sans-serif" font-size="12" text-anchor="middle">
    Sammenlign:
  </text><text x="70" y="340" fill="#fff" font-family="Arial, sans-serif" font-size="11">• Fysisk telling</text><text x="70" y="355" fill="#fff" font-family="Arial, sans-serif" font-size="11">• Kasserapport</text><text x="70" y="370" fill="#fff" font-family="Arial, sans-serif" font-size="11">• Startkasse + Salg - Uttak</text><text x="70" y="385" fill="#fff" font-family="Arial, sans-serif" font-size="11">• Beregn differanse</text><text x="70" y="400" fill="#fff" font-family="Arial, sans-serif" font-size="11">• Dokumenter resultat</text><path fill="none" stroke="#e74c3c" stroke-width="3" d="M310 345h30l-10-10m10 10-10 10"/><path fill="#f39c12" stroke="#e67e22" stroke-width="2" d="m475 320 45 25-45 25-45-25z"/><text x="475" y="350" fill="#fff" font-family="Arial, sans-serif" font-size="12" font-weight="bold" text-anchor="middle">
    AVVIK?
  </text><path fill="none" stroke="#e74c3c" stroke-width="3" d="M475 380v30l-10-10m10 10 10-10"/><text x="485" y="395" fill="#e74c3c" font-family="Arial, sans-serif" font-size="10">JA</text><path fill="none" stroke="#27ae60" stroke-width="3" d="M530 345h30l-10-10m10 10-10 10"/><text x="545" y="335" fill="#27ae60" font-family="Arial, sans-serif" font-size="10">NEI</text><rect width="250" height="120" x="350" y="420" fill="#e74c3c" stroke="#c0392b" stroke-width="2" rx="10"/><text x="475" y="445" fill="#fff" font-family="Arial, sans-serif" font-size="16" font-weight="bold" text-anchor="middle">
    STEG 5A: AVVIKSHÅNDTERING
  </text><text x="370" y="470" fill="#fff" font-family="Arial, sans-serif" font-size="11">• Dobbeltkontroll av telling</text><text x="370" y="485" fill="#fff" font-family="Arial, sans-serif" font-size="11">• Gjennomgang av transaksjoner</text><text x="370" y="500" fill="#fff" font-family="Arial, sans-serif" font-size="11">• Identifiser årsak til avvik</text><text x="370" y="515" fill="#fff" font-family="Arial, sans-serif" font-size="11">• Dokumenter funn og tiltak</text><text x="370" y="530" fill="#fff" font-family="Arial, sans-serif" font-size="11">• Rapporter til ledelse</text><rect width="200" height="120" x="570" y="270" fill="#27ae60" stroke="#229954" stroke-width="2" rx="10"/><text x="670" y="295" fill="#fff" font-family="Arial, sans-serif" font-size="16" font-weight="bold" text-anchor="middle">
    STEG 5B: GODKJENT
  </text><text x="670" y="315" fill="#fff" font-family="Arial, sans-serif" font-size="16" font-weight="bold" text-anchor="middle">
    OPPGJØR
  </text><text x="590" y="340" fill="#fff" font-family="Arial, sans-serif" font-size="11">• Arkiver dokumenter</text><text x="590" y="355" fill="#fff" font-family="Arial, sans-serif" font-size="11">• Oppdater regnskapet</text><text x="590" y="370" fill="#fff" font-family="Arial, sans-serif" font-size="11">• Forbered neste dag</text><path fill="none" stroke="#27ae60" stroke-width="3" d="m600 480 70-60-10 5m10-5-5 10"/><text x="450" y="580" fill="#7f8c8d" font-family="Arial, sans-serif" font-size="12" font-style="italic" text-anchor="middle">
    Systematisk gjennomføring sikrer nøyaktig kasseoppgjør og god internkontroll
  </text></svg>

<svg width="900" height="600" xmlns="http://www.w3.org/2000/svg">
  <defs>
    <linearGradient id="bgGradient" x1="0%" y1="0%" x2="100%" y2="100%">
      <stop offset="0%" style="stop-color:#f8f9fa;stop-opacity:1" />
      <stop offset="100%" style="stop-color:#e9ecef;stop-opacity:1" />
    </linearGradient>
    <linearGradient id="stepGradient1" x1="0%" y1="0%" x2="100%" y2="100%">
      <stop offset="0%" style="stop-color:#3498db;stop-opacity:1" />
      <stop offset="100%" style="stop-color:#2980b9;stop-opacity:1" />
    </linearGradient>
    <linearGradient id="stepGradient2" x1="0%" y1="0%" x2="100%" y2="100%">
      <stop offset="0%" style="stop-color:#27ae60;stop-opacity:1" />
      <stop offset="100%" style="stop-color:#229954;stop-opacity:1" />
    </linearGradient>
    <linearGradient id="stepGradient3" x1="0%" y1="0%" x2="100%" y2="100%">
      <stop offset="0%" style="stop-color:#f39c12;stop-opacity:1" />
      <stop offset="100%" style="stop-color:#e67e22;stop-opacity:1" />
    </linearGradient>
  </defs>
  

  <rect width="900" height="600" fill="url(#bgGradient)" stroke="#dee2e6" stroke-width="2"/>
  

  <text x="450" y="30" font-family="Arial, sans-serif" font-size="24" font-weight="bold" text-anchor="middle" fill="#2c3e50">
    Detaljert Kasseoppgjør Prosess - Steg for Steg
  </text>
  

  <rect x="50" y="70" width="250" height="150" fill="url(#stepGradient1)" stroke="#2980b9" stroke-width="2" rx="10"/>
  <text x="175" y="95" font-family="Arial, sans-serif" font-size="16" font-weight="bold" text-anchor="middle" fill="white">
    STEG 1: FORBEREDELSE
  </text>
  

  <text x="70" y="120" font-family="Arial, sans-serif" font-size="12" fill="white">✓ Avslutt alle aktive transaksjoner</text>
  <text x="70" y="140" font-family="Arial, sans-serif" font-size="12" fill="white">✓ Print kasserapporter</text>
  <text x="70" y="160" font-family="Arial, sans-serif" font-size="12" fill="white">✓ Samle alle betalingsmidler</text>
  <text x="70" y="180" font-family="Arial, sans-serif" font-size="12" fill="white">✓ Forbered tellingsskjema</text>
  <text x="70" y="200" font-family="Arial, sans-serif" font-size="12" fill="white">✓ Sikre arbeidsområde</text>
  

  <path d="M 310 145 L 340 145 L 330 135 M 340 145 L 330 155" stroke="#e74c3c" stroke-width="3" fill="none"/>
  

  <rect x="350" y="70" width="250" height="150" fill="url(#stepGradient2)" stroke="#229954" stroke-width="2" rx="10"/>
  <text x="475" y="95" font-family="Arial, sans-serif" font-size="16" font-weight="bold" text-anchor="middle" fill="white">
    STEG 2: FYSISK TELLING
  </text>
  

  <rect x="370" y="110" width="60" height="30" fill="#27ae60" stroke="#229954" stroke-width="1" rx="3"/>
  <text x="400" y="130" font-family="Arial, sans-serif" font-size="10" font-weight="bold" text-anchor="middle" fill="white">1000kr</text>
  
  <rect x="440" y="110" width="60" height="30" fill="#e74c3c" stroke="#c0392b" stroke-width="1" rx="3"/>
  <text x="470" y="130" font-family="Arial, sans-serif" font-size="10" font-weight="bold" text-anchor="middle" fill="white">500kr</text>
  
  <rect x="510" y="110" width="60" height="30" fill="#3498db" stroke="#2980b9" stroke-width="1" rx="3"/>
  <text x="540" y="130" font-family="Arial, sans-serif" font-size="10" font-weight="bold" text-anchor="middle" fill="white">200kr</text>
  
  <text x="475" y="160" font-family="Arial, sans-serif" font-size="12" fill="white">Tell systematisk:</text>
  <text x="370" y="180" font-family="Arial, sans-serif" font-size="11" fill="white">• Store sedler først</text>
  <text x="370" y="195" font-family="Arial, sans-serif" font-size="11" fill="white">• Deretter små sedler</text>
  <text x="370" y="210" font-family="Arial, sans-serif" font-size="11" fill="white">• Til slutt mynter</text>
  

  <path d="M 610 145 L 640 145 L 630 135 M 640 145 L 630 155" stroke="#e74c3c" stroke-width="3" fill="none"/>
  

  <rect x="650" y="70" width="200" height="150" fill="url(#stepGradient3)" stroke="#e67e22" stroke-width="2" rx="10"/>
  <text x="750" y="95" font-family="Arial, sans-serif" font-size="16" font-weight="bold" text-anchor="middle" fill="white">
    STEG 3: REGISTRERING
  </text>
  

  <rect x="670" y="110" width="160" height="100" fill="#ecf0f1" stroke="#bdc3c7" stroke-width="1"/>
  <text x="750" y="125" font-family="Arial, sans-serif" font-size="11" font-weight="bold" text-anchor="middle" fill="#2c3e50">
    TELLINGSSKJEMA
  </text>
  

  <line x1="675" y1="135" x2="825" y2="135" stroke="#7f8c8d" stroke-width="1"/>
  <line x1="675" y1="150" x2="825" y2="150" stroke="#7f8c8d" stroke-width="1"/>
  <line x1="675" y1="165" x2="825" y2="165" stroke="#7f8c8d" stroke-width="1"/>
  <line x1="675" y1="180" x2="825" y2="180" stroke="#7f8c8d" stroke-width="1"/>
  <line x1="675" y1="195" x2="825" y2="195" stroke="#7f8c8d" stroke-width="1"/>
  
  <text x="680" y="145" font-family="Arial, sans-serif" font-size="9" fill="#2c3e50">1000kr x 15</text>
  <text x="680" y="160" font-family="Arial, sans-serif" font-size="9" fill="#2c3e50">500kr x 8</text>
  <text x="680" y="175" font-family="Arial, sans-serif" font-size="9" fill="#2c3e50">200kr x 12</text>
  <text x="680" y="190" font-family="Arial, sans-serif" font-size="9" fill="#2c3e50">100kr x 25</text>
  

  <path d="M 175 230 L 175 260 L 165 250 M 175 260 L 185 250" stroke="#e74c3c" stroke-width="3" fill="none"/>
  

  <rect x="50" y="270" width="250" height="150" fill="#9b59b6" stroke="#8e44ad" stroke-width="2" rx="10"/>
  <text x="175" y="295" font-family="Arial, sans-serif" font-size="16" font-weight="bold" text-anchor="middle" fill="white">
    STEG 4: AVSTEMMING
  </text>
  
  <text x="175" y="320" font-family="Arial, sans-serif" font-size="12" text-anchor="middle" fill="white">
    Sammenlign:
  </text>
  <text x="70" y="340" font-family="Arial, sans-serif" font-size="11" fill="white">• Fysisk telling</text>
  <text x="70" y="355" font-family="Arial, sans-serif" font-size="11" fill="white">• Kasserapport</text>
  <text x="70" y="370" font-family="Arial, sans-serif" font-size="11" fill="white">• Startkasse + Salg - Uttak</text>
  <text x="70" y="385" font-family="Arial, sans-serif" font-size="11" fill="white">• Beregn differanse</text>
  <text x="70" y="400" font-family="Arial, sans-serif" font-size="11" fill="white">• Dokumenter resultat</text>
  

  <path d="M 310 345 L 340 345 L 330 335 M 340 345 L 330 355" stroke="#e74c3c" stroke-width="3" fill="none"/>
  

  <polygon points="475,320 520,345 475,370 430,345" fill="#f39c12" stroke="#e67e22" stroke-width="2"/>
  <text x="475" y="350" font-family="Arial, sans-serif" font-size="12" font-weight="bold" text-anchor="middle" fill="white">
    AVVIK?
  </text>
  

  <path d="M 475 380 L 475 410 L 465 400 M 475 410 L 485 400" stroke="#e74c3c" stroke-width="3" fill="none"/>
  <text x="485" y="395" font-family="Arial, sans-serif" font-size="10" fill="#e74c3c">JA</text>
  

  <path d="M 530 345 L 560 345 L 550 335 M 560 345 L 550 355" stroke="#27ae60" stroke-width="3" fill="none"/>
  <text x="545" y="335" font-family="Arial, sans-serif" font-size="10" fill="#27ae60">NEI</text>
  

  <rect x="350" y="420" width="250" height="120" fill="#e74c3c" stroke="#c0392b" stroke-width="2" rx="10"/>
  <text x="475" y="445" font-family="Arial, sans-serif" font-size="16" font-weight="bold" text-anchor="middle" fill="white">
    STEG 5A: AVVIKSHÅNDTERING
  </text>
  
  <text x="370" y="470" font-family="Arial, sans-serif" font-size="11" fill="white">• Dobbeltkontroll av telling</text>
  <text x="370" y="485" font-family="Arial, sans-serif" font-size="11" fill="white">• Gjennomgang av transaksjoner</text>
  <text x="370" y="500" font-family="Arial, sans-serif" font-size="11" fill="white">• Identifiser årsak til avvik</text>
  <text x="370" y="515" font-family="Arial, sans-serif" font-size="11" fill="white">• Dokumenter funn og tiltak</text>
  <text x="370" y="530" font-family="Arial, sans-serif" font-size="11" fill="white">• Rapporter til ledelse</text>
  

  <rect x="570" y="270" width="200" height="120" fill="#27ae60" stroke="#229954" stroke-width="2" rx="10"/>
  <text x="670" y="295" font-family="Arial, sans-serif" font-size="16" font-weight="bold" text-anchor="middle" fill="white">
    STEG 5B: GODKJENT
  </text>
  <text x="670" y="315" font-family="Arial, sans-serif" font-size="16" font-weight="bold" text-anchor="middle" fill="white">
    OPPGJØR
  </text>
  
  <text x="590" y="340" font-family="Arial, sans-serif" font-size="11" fill="white">• Arkiver dokumenter</text>
  <text x="590" y="355" font-family="Arial, sans-serif" font-size="11" fill="white">• Oppdater regnskapet</text>
  <text x="590" y="370" font-family="Arial, sans-serif" font-size="11" fill="white">• Forbered neste dag</text>
  

  <path d="M 600 480 L 670 420 L 660 425 M 670 420 L 665 430" stroke="#27ae60" stroke-width="3" fill="none"/>
  

  <text x="450" y="580" font-family="Arial, sans-serif" font-size="12" font-style="italic" text-anchor="middle" fill="#7f8c8d">
    Systematisk gjennomføring sikrer nøyaktig kasseoppgjør og god internkontroll
  </text>
</svg>
